svgs/nino.svg

<svg width="192" height="192" viewBox="0 0 192 192" fill="none" xmlns="http://www.w3.org/2000/svg">
<path d="M22 68L96 113M170 68L96 113M96 113V167" stroke="black" stroke-width="12" stroke-linejoin="round"/>
<path d="M170 124V68L96 23L22 68V124L96 169L170 124Z" stroke="black" stroke-width="12" stroke-linejoin="round"/>
<path d="M104 51.5C102.504 53.2819 99.4829 54 96 54C92.5171 54 89.4962 53.2819 88 51.5" stroke="black" stroke-width="10" stroke-linecap="round"/>
<path d="M132 67.5C130.504 68.688 127.483 70 124 70C120.517 70 117.496 68.688 116 67.5" stroke="black" stroke-width="10" stroke-linecap="round"/>
<path d="M76 67.5C74.5038 69.2819 71.4829 70 68 70C64.5171 70 61.4962 69.2819 60 67.5" stroke="black" stroke-width="10" stroke-linecap="round"/>
<path d="M104 84.5C102.504 85.688 99.4829 87 96 87C92.5171 87 89.4962 85.688 88 84.5" stroke="black" stroke-width="10" stroke-linecap="round"/>
</svg>

<svg xmlns="http://www.w3.org/2000/svg" width="192" height="192" fill="none" viewBox="0 0 192 192"><path stroke="#000" stroke-linejoin="round" stroke-width="12" d="m22 68 74 45m74-45-74 45m0 0v54m74-43V68L96 23 22 68v56l74 45z"/><path stroke="#000" stroke-linecap="round" stroke-width="10" d="M104 51.5c-1.496 1.782-4.517 2.5-8 2.5s-6.504-.718-8-2.5m44 16c-1.496 1.188-4.517 2.5-8 2.5s-6.504-1.312-8-2.5m-40 0c-1.496 1.782-4.517 2.5-8 2.5s-6.504-.718-8-2.5m44 17c-1.496 1.188-4.517 2.5-8 2.5s-6.504-1.312-8-2.5"/></svg>
